X:38
T:My Love is in America
S:Trad, arr. Paddy O'Brien 
R:reel
E:9
I:speed 350
M:C|
K:DMix
E|FEFG AB ~c2|Addc AddG|FEFG ABcA|GBAG FDDE|\
FEFG AB~c2|Add^c defg|afge fdcA|GBAG FDD:|\
e|:fd(3efg fdec|Addc Adde|fdeg fdcA|GBAG FD~D2|\
fdeg fdec|Add^c defg|afge fdcA|GBAG FD D2:|**

